X:232
T:Paddy Fahy's 1
R:Reel
O:Ireland
S:Richard Robinson's web page/abc file
Z:Transcription:Richard Robinson(?), Chords:Mike Long
M:C|
L:1/8
K:C
"Dm"D2A,D FEFG| "A"Add^c "Dm"d2de| "F"f2df "C"edcA|\
"C"dcAG "Am"FDCE|"Dm"DA, ~A,2 FEFG | "A"Ad^cA "Dm"d2de |
"F"f2gf "C"edcA | "Am"dcAG "Dm"FDD2:|\
|:"D"Ad ~d2 ^fded |\
"C"c2Gc EcGc | "D"Ad ~d2 ^fded |
"C"cBcd "D"edd2 | "D"~a2 ^ga ABcA | "C"dcAG "Am"FDCE |\
"Dm"D2DE "F"FEFG | "A"Ad^cA "Dm"d4 :|
